storage/app/icons/tabler/filled/apple.svg

<!--
unicode: "10017"
version: "3.15"
-->
<svg
  xmlns="http://www.w3.org/2000/svg"
  width="24"
  height="24"
  viewBox="0 0 24 24"
  fill="currentColor"
>
  <path d="M15 2a1 1 0 0 1 .117 1.993l-.117 .007c-.693 0 -1.33 .694 -1.691 1.552a5.1 5.1 0 0 1 1.982 -.544l.265 -.008c2.982 0 5.444 3.053 5.444 6.32c0 3.547 -.606 5.862 -2.423 8.578c-1.692 2.251 -4.092 2.753 -6.41 1.234a.31 .31 0 0 0 -.317 -.01c-2.335 1.528 -4.735 1.027 -6.46 -1.27c-1.783 -2.668 -2.39 -4.984 -2.39 -8.532l.004 -.222c.108 -3.181 2.526 -6.098 5.44 -6.098c.94 0 1.852 .291 2.688 .792c.419 -1.95 1.818 -3.792 3.868 -3.792m-7.034 6.154c-1.36 .858 -1.966 2.06 -1.966 3.846a1 1 0 0 0 2 0c0 -1.125 .28 -1.678 1.034 -2.154a1 1 0 1 0 -1.068 -1.692" />
</svg>

<svg xmlns="http://www.w3.org/2000/svg" width="24" height="24" fill="currentColor" viewBox="0 0 24 24"><path d="M15 2a1 1 0 0 1 .117 1.993L15 4c-.693 0-1.33.694-1.691 1.552a5.1 5.1 0 0 1 1.982-.544L15.556 5C18.538 5 21 8.053 21 11.32c0 3.547-.606 5.862-2.423 8.578-1.692 2.251-4.092 2.753-6.41 1.234a.31.31 0 0 0-.317-.01c-2.335 1.528-4.735 1.027-6.46-1.27C3.607 17.184 3 14.868 3 11.32l.004-.222C3.112 7.917 5.53 5 8.444 5c.94 0 1.852.291 2.688.792C11.551 3.842 12.95 2 15 2M7.966 8.154C6.606 9.012 6 10.214 6 12a1 1 0 0 0 2 0c0-1.125.28-1.678 1.034-2.154a1 1 0 1 0-1.068-1.692"/></svg>
